packages/ffe-icons/icons/open/400/sm/water_do.svg

<svg xmlns="http://www.w3.org/2000/svg" height="20" viewBox="0 -960 960 960" width="20"><path d="M317.789-360Q333-360 343.5-370.289q10.5-10.29 10.5-25.5Q354-411 343.711-421.5q-10.29-10.5-25.5-10.5Q303-432 292.5-421.711q-10.5 10.29-10.5 25.5Q282-381 292.289-370.5q10.29 10.5 25.5 10.5Zm54-108Q387-468 397.5-478.289q10.5-10.29 10.5-25.5Q408-519 397.711-529.5q-10.29-10.5-25.5-10.5Q357-540 346.5-529.711q-10.5 10.29-10.5 25.5Q336-489 346.289-478.5q10.29 10.5 25.5 10.5Zm0 216Q387-252 397.5-262.289q10.5-10.29 10.5-25.5Q408-303 397.711-313.5q-10.29-10.5-25.5-10.5Q357-324 346.5-313.711q-10.5 10.29-10.5 25.5Q336-273 346.289-262.5q10.29 10.5 25.5 10.5Zm54-108Q441-360 451.5-370.289q10.5-10.29 10.5-25.5Q462-411 451.711-421.5q-10.29-10.5-25.5-10.5Q411-432 400.5-421.711q-10.5 10.29-10.5 25.5Q390-381 400.289-370.5q10.29 10.5 25.5 10.5Zm0-216Q441-576 451.5-586.289q10.5-10.29 10.5-25.5Q462-627 451.711-637.5q-10.29-10.5-25.5-10.5Q411-648 400.5-637.711q-10.5 10.29-10.5 25.5Q390-597 400.289-586.5q10.29 10.5 25.5 10.5Zm54 108Q495-468 505.5-478.289q10.5-10.29 10.5-25.5Q516-519 505.711-529.5q-10.29-10.5-25.5-10.5Q465-540 454.5-529.711q-10.5 10.29-10.5 25.5Q444-489 454.289-478.5q10.29 10.5 25.5 10.5Zm0 216Q495-252 505.5-262.289q10.5-10.29 10.5-25.5Q516-303 505.711-313.5q-10.29-10.5-25.5-10.5Q465-324 454.5-313.711q-10.5 10.29-10.5 25.5Q444-273 454.289-262.5q10.29 10.5 25.5 10.5Zm54-108Q549-360 559.5-370.289q10.5-10.29 10.5-25.5Q570-411 559.711-421.5q-10.29-10.5-25.5-10.5Q519-432 508.5-421.711q-10.5 10.29-10.5 25.5Q498-381 508.289-370.5q10.29 10.5 25.5 10.5Zm0-216Q549-576 559.5-586.289q10.5-10.29 10.5-25.5Q570-627 559.711-637.5q-10.29-10.5-25.5-10.5Q519-648 508.5-637.711q-10.5 10.29-10.5 25.5Q498-597 508.289-586.5q10.29 10.5 25.5 10.5Zm54 108Q603-468 613.5-478.289q10.5-10.29 10.5-25.5Q624-519 613.711-529.5q-10.29-10.5-25.5-10.5Q573-540 562.5-529.711q-10.5 10.29-10.5 25.5Q552-489 562.289-478.5q10.29 10.5 25.5 10.5Zm0 216Q603-252 613.5-262.289q10.5-10.29 10.5-25.5Q624-303 613.711-313.5q-10.29-10.5-25.5-10.5Q573-324 562.5-313.711q-10.5 10.29-10.5 25.5Q552-273 562.289-262.5q10.29 10.5 25.5 10.5Zm54-108Q657-360 667.5-370.289q10.5-10.29 10.5-25.5Q678-411 667.711-421.5q-10.29-10.5-25.5-10.5Q627-432 616.5-421.711q-10.5 10.29-10.5 25.5Q606-381 616.289-370.5q10.29 10.5 25.5 10.5ZM480-96q-130 0-221-91t-91-221q0-61 27.529-120.615 27.53-59.616 68.824-114.423 41.294-54.808 89.471-102.885Q402-794 443-831q8-7 17.523-10.5 9.524-3.5 19.5-3.5Q490-845 499-841.5t16.68 11.5Q556-793 604-745q48 48 90 102.91t70 114.637Q792-467.727 792-408q0 130-91 221T480-96Zm0-72q100 0 170-70t70-169.867Q720-476 666-557q-54-81-186-212-132 131-186 212t-54 149.133Q240-308 310-238q70 70 170 70Zm0-312Z"/></svg>

<svg xmlns="http://www.w3.org/2000/svg" height="20" viewBox="0 -960 960 960" width="20"><path d="M317.79-360q15.21 0 25.71-10.29t10.5-25.5q0-15.21-10.29-25.71t-25.5-10.5q-15.21 0-25.71 10.29t-10.5 25.5q0 15.21 10.29 25.71t25.5 10.5Zm54-108q15.21 0 25.71-10.29t10.5-25.5q0-15.21-10.29-25.71t-25.5-10.5q-15.21 0-25.71 10.29t-10.5 25.5q0 15.21 10.29 25.71t25.5 10.5Zm0 216q15.21 0 25.71-10.29t10.5-25.5q0-15.21-10.29-25.71t-25.5-10.5q-15.21 0-25.71 10.29t-10.5 25.5q0 15.21 10.29 25.71t25.5 10.5Zm54-108q15.21 0 25.71-10.29t10.5-25.5q0-15.21-10.29-25.71t-25.5-10.5q-15.21 0-25.71 10.29t-10.5 25.5q0 15.21 10.29 25.71t25.5 10.5Zm0-216q15.21 0 25.71-10.29t10.5-25.5q0-15.21-10.29-25.71t-25.5-10.5q-15.21 0-25.71 10.29t-10.5 25.5q0 15.21 10.29 25.71t25.5 10.5Zm54 108q15.21 0 25.71-10.29t10.5-25.5q0-15.21-10.29-25.71t-25.5-10.5q-15.21 0-25.71 10.29t-10.5 25.5q0 15.21 10.29 25.71t25.5 10.5Zm0 216q15.21 0 25.71-10.29t10.5-25.5q0-15.21-10.29-25.71t-25.5-10.5q-15.21 0-25.71 10.29t-10.5 25.5q0 15.21 10.29 25.71t25.5 10.5Zm54-108q15.21 0 25.71-10.29t10.5-25.5q0-15.21-10.29-25.71t-25.5-10.5q-15.21 0-25.71 10.29t-10.5 25.5q0 15.21 10.29 25.71t25.5 10.5Zm0-216q15.21 0 25.71-10.29t10.5-25.5q0-15.21-10.29-25.71t-25.5-10.5q-15.21 0-25.71 10.29t-10.5 25.5q0 15.21 10.29 25.71t25.5 10.5Zm54 108q15.21 0 25.71-10.29t10.5-25.5q0-15.21-10.29-25.71t-25.5-10.5q-15.21 0-25.71 10.29t-10.5 25.5q0 15.21 10.29 25.71t25.5 10.5Zm0 216q15.21 0 25.71-10.29t10.5-25.5q0-15.21-10.29-25.71t-25.5-10.5q-15.21 0-25.71 10.29t-10.5 25.5q0 15.21 10.29 25.71t25.5 10.5Zm54-108q15.21 0 25.71-10.29t10.5-25.5q0-15.21-10.29-25.71t-25.5-10.5q-15.21 0-25.71 10.29t-10.5 25.5q0 15.21 10.29 25.71t25.5 10.5ZM480-96q-130 0-221-91t-91-221q0-61 27.53-120.62 27.53-59.61 68.82-114.42 41.3-54.81 89.47-102.88Q402-794 443-831q8-7 17.52-10.5 9.53-3.5 19.5-3.5 9.98 0 18.98 3.5t16.68 11.5Q556-793 604-745q48 48 90 102.91t70 114.64q28 59.72 28 119.45 0 130-91 221T480-96Zm0-72q100 0 170-70t70-169.87Q720-476 666-557T480-769Q348-638 294-557t-54 149.13Q240-308 310-238t170 70Zm0-312Z"/></svg>
